Newaita-dark/.DP/16/discord-tray-deafened.svg

<svg xmlns="http://www.w3.org/2000/svg" xmlns:xlink="http://www.w3.org/1999/xlink" width="16px" height="16px" viewBox="0 0 16 16" version="1.1">
<g id="surface1">
<path style=" stroke:none;fill-rule:nonzero;fill:rgb(93.333334%,93.333334%,93.333334%);fill-opacity:0.392157;" d="M 6.269531 3.828125 C 5.238281 3.878906 4.214844 4.28125 3.410156 4.921875 C 2.5 6.734375 1.96875 8.757812 1.957031 10.792969 C 1.875 11.882812 3.882812 12.308594 5.070312 12.335938 C 5.679688 12.304688 6.101562 11.742188 5.695312 11.480469 C 5.15625 11.285156 4.378906 11.117188 3.988281 10.753906 C 3.566406 10.472656 3.707031 10.191406 3.96875 10.304688 C 5.140625 11.042969 6.527344 11.441406 7.914062 11.457031 C 7.917969 11.457031 7.921875 11.457031 7.925781 11.457031 C 7.929688 11.457031 7.929688 11.457031 7.933594 11.457031 C 9.320312 11.441406 10.707031 11.042969 11.878906 10.304688 C 12.140625 10.191406 12.28125 10.472656 11.859375 10.753906 C 11.472656 11.117188 10.691406 11.285156 10.152344 11.480469 C 9.746094 11.742188 10.167969 12.304688 10.777344 12.335938 C 11.96875 12.308594 13.972656 11.882812 13.890625 10.792969 C 13.878906 8.757812 13.347656 6.734375 12.4375 4.921875 C 11.636719 4.28125 10.609375 3.878906 9.578125 3.828125 C 9.527344 3.839844 9.5 3.917969 9.460938 3.949219 C 10.417969 4.230469 11.367188 4.628906 12.136719 5.277344 C 11.300781 4.847656 10.398438 4.523438 9.46875 4.382812 C 8.957031 4.296875 8.441406 4.253906 7.925781 4.257812 C 7.40625 4.253906 6.890625 4.296875 6.382812 4.382812 C 5.449219 4.523438 4.550781 4.847656 3.714844 5.277344 C 4.480469 4.628906 5.429688 4.230469 6.390625 3.949219 C 6.347656 3.917969 6.320312 3.839844 6.269531 3.828125 Z M 5.679688 7.375 C 6.304688 7.375 6.808594 7.875 6.808594 8.5 C 6.808594 9.125 6.304688 9.628906 5.679688 9.628906 C 5.054688 9.628906 4.554688 9.125 4.554688 8.5 C 4.554688 7.875 5.054688 7.375 5.679688 7.375 Z M 10.1875 7.375 C 10.8125 7.375 11.316406 7.875 11.316406 8.5 C 11.316406 9.125 10.8125 9.628906 10.1875 9.628906 C 9.566406 9.628906 9.0625 9.125 9.0625 8.5 C 9.0625 7.875 9.566406 7.375 10.1875 7.375 Z M 10.1875 7.375 "/>
</g>
</svg>

<svg xmlns="http://www.w3.org/2000/svg" width="16pt" height="16pt" viewBox="0 0 16 16"><path d="M6.27 3.828a5.063 5.063 0 0 0-2.86 1.094C2.5 6.734 1.97 8.758 1.957 10.793c-.082 1.09 1.926 1.516 3.113 1.543.61-.031 1.032-.594.625-.856-.539-.195-1.316-.363-1.707-.726-.422-.281-.281-.563-.02-.45a7.61 7.61 0 0 0 3.946 1.153h.02a7.61 7.61 0 0 0 3.945-1.152c.262-.114.402.168-.02.449-.386.363-1.168.531-1.707.726-.406.262.016.825.625.856 1.192-.027 3.196-.453 3.114-1.543-.012-2.035-.543-4.059-1.454-5.871a5.052 5.052 0 0 0-2.859-1.094c-.05.012-.078.09-.117.121.957.281 1.906.68 2.676 1.328-.836-.43-1.739-.754-2.668-.894a8.906 8.906 0 0 0-1.543-.125 8.844 8.844 0 0 0-1.543.125c-.934.14-1.832.465-2.668.894C4.48 4.63 5.43 4.23 6.39 3.95c-.043-.031-.07-.11-.121-.12zm-.59 3.547A1.127 1.127 0 1 1 4.555 8.5c0-.625.5-1.125 1.125-1.125zm4.508 0a1.127 1.127 0 1 1 0 0zm0 0" fill="#bdbdbd" fill-opacity=".392"/></svg>
